X:1
T:Turn about and see me - Mundy
T:#
%%score [ 1 2 3 ]
L:1/8
Q:1/4=120
M:4/2
K:F
V:1 treble nm="Soprano " snm="S"
V:2 treble nm="Alto" snm="A"
V:3 treble-8 nm="Tenor" snm="T"
V:1
"^Turn about and see me""^John Mundy\n(c. 1555-1630)" G2 G2 G2 G2 A4 c2 =B2 | A4 A2 A2 =B4 B2 B2 | %2
w: Turn a- bout and see me, and|see me, and see me, How|
[M:3/4] G3 G c2 | =B3 A G2 | F3 E D2 |[M:4/2] E4 z2 E2 F3 F F2 A2 | (G2 F2 G4) A2 A2 c4 | %7
w: lus- ti- ly,|lus- ti- ly,|lus- ty I|spring, As joy- ful- ly as|may * * be, As glad,|
 A4 D2 F2 B4 G4 | A2 (G2 E4) ^F4 D2 A2- | A2 A2 A6 D2 G4 | G4 G4 G2 c4 B2 | A6 d2 =B2 A2 B4 | %12
w: as glad, as glad as|a- ny\- * thing. If you|* will ask the cause|and why, I mean to|tell you by and by,|
 c4 _B2 A2 G2 B2 A2 G2 | A8 z4 z4 | z2 F2 G2 F2 B4 A2 c2- | c (B A2 G2 F2) G2 E2 D2 C2 | %16
w: I mean to tell you by and|by.|She lives that I do ho\-|* nour * * * most, Far pass- ing|
 G6 B2 A2 G2 F2 E2 | D2 D2 G3 G E2 C2 c3 c | A4 z2 D2 G3 G E2 C2 | c3 c =B4 c4 G2 E2 | %20
w: all, far pass- ing all the|rest; A migh- ty prince and ex- cel-|lent, a migh- ty prince and|ex- cel- lent, Sweet Eg- len-|
 F2 D2 C4 A2 G4 G2 | F4 (E6 FG F2 E2) | (D2 C2 D4) E2 G2 A2 G2 | c4 G2 E2 z4 z2 C2 | %24
w: tine the best, sweet Eg- len-|tine the * * * *|* * * best. Then joy with|me, with me, then|
 D2 C2 F4 z2 D2 E2 D2 | G4 c2 (A2 G2 c2) =B4 | z2 G2 A2 G2 c4 A4 | A4 (G4 A8) | B8 G4 c4- | %29
w: joy with me, then joy with|me, joy with * * me,|then joy with me, both|great and *|small, Her life|
 c2 =B2 A6 G2 F2 E2 | D4 G4 F2 D2 F4 | z4 z4 z4 G4 | B6 A2 G2 F2 E2 D2 | E16 |] %34
w: * brings joy un- to us|all, un- to us all,|her|life brings joy un- to us|all.|
V:2
 E2 E2 E2 E2 F4 E2 G2 | ^F4 E2 F2 G4 G2 D2 |[M:3/4] E3 D C2 | D3 D E2 | A,3 C =B,2 | %5
w: Turn a- bout and see me, and|see me, and see me, How|lus- ti- ly,|lus- ti- ly,|lus- ty I|
[M:4/2] C4 z2 G2 D3 D D2 (F2 | E2 F2) E4 F2 C2 F4 | z2 C2 G2 D2 G4 (E4 | F2) D4 ^C2 D8 | %9
w: spring, As joy- ful- ly as|* * may be, as glad,|as glad as glad as|* a- ny- thing.|
 E2 F4 E2 F4 D2 E2- | E2 D2 E4 E6 F2- | F2 E2 D2 F2 G2 A4 G2 | A4 G2 F2 E2 F4 E2 | %13
w: If you will ask the cause|* and why, I mean|* to tell you * by and|by, to tell you by and|
 F2 C2 D2 C2 F4 E2 F2- | F2 D2 D2 C2 D2 E2 F4 | E2 F2 (E2 F2) E4 z2 F2 | %16
w: by. She lives that I do ho\-|* nour most, she lives that I|do ho- nour * most, Far|
 E2 D2 C2 F,2 C2 (E2 D2) C2 | =B,6 G,2 C3 C A,2 F,2 | F3 F D4 C4 z2 G2- | GG ^F2 G3 G E6 C2 | %20
w: pass- ing all the rest, all * the|rest; A migh- ty prince and|ex- cel- lent, and ex\-|* cel- lent, ex- cel- lent, Sweet|
 D2 (F2 E4) E4 D2 C2- | C2 (=B,2 C6 DE D2 C2) | (=B,2 C4 B,2) C4 z2 G,2 | %23
w: Eg- len\- * tine the best,|* the * * * * *|* * * best. Then|
 A,2 G,2 C4 =B,2 C2 D2 C2 | F3 (E D2 C2) =B,8 | z2 G,2 A,2 F,2 C4 z2 D2 | E2 C2 F2 E4 (F2 D2 F2) | %27
w: joy with me, joy with me, then|joy with * * me,|then joy with me, then|joy with me, joy with * *|
 E2 (F2 E2 D2) E4 ^F4 | G4 G2 F2 E8 | C4 F6 E2 D2 C2 | =B,2 G,2 D4 z4 D4 | G6 F2 E2 (D2 E4) | %32
w: me both * * great and|small, great and small,|Her life brings joy un-|to us all, her|life brings joy un\- *|
 D6 (C2 =B,2 C4 B,2) | C16 |] %34
w: to us * * *|all.|
V:3
 c2 c2 c2 c2 F4 A2 G2 | d4 ^c2 d2 G4 G2 G2 |[M:3/4] c3 =B A2 | G3 F E2 | F3 D G2 | %5
w: Turn a- bout and see me, and|see me, and see me, How|lus- ti- ly,|lus- ti- ly,|lus- ty I|
[M:4/2][K:treble-8] C4 z2 c2 B3 B B2 F2 | c2 d2 c4 F8 | z2 F2 B4 z2 G2 c2 C2 | F2 (G2 A4) D8 | %9
w: spring, As joy- ful- ly as|may, as may be,|as glad, as glad as|a- ny\- * thing.|
 A2 d4 ^c2 d4 =B2 =c2- | c2 =B2 c8 A2 d2- | d2 c2 f2 d2 e2 (f2 e4) | A4 B4 (c2 d2 c4) | %13
w: If you will ask the cause|* and why, I mean|* to tell you by and *|by, by and * *|
 F8 z2 F2 G2 F2 | B6 A2 G4 F2 A2- | A2 F2 c2 d2 c2 c2 =B2 A2 | G2 (F2 E2 D2 C8) | G8 z4 z4 | %18
w: by. She lives that|I do ho- nour most,|* do ho- nour most, Far pass- ing|all the * * *|rest;|
 z2 D2 G3 F E2 C2 c3 c | A4 G3 G C8 | z4 z4 c4 G2 E2 | F2 D2 C4 (E4 F4) | G8 C8 | %23
w: A migh- ty prince and ex- cel-|lent, ex- cel- lent,|Sweet Eg- len-|tine the best, the *|* best.|
 z4 z2 C2 D2 C2 F4- | F4 F4 G6 G2 | E4 z2 D2 F2 D2 G4 | C4 z2 G2 A2 F2 f2 F2 | %27
w: Then joy with me,|* then joy with|me, then joy with me,|joy, then joy with me, then|
 A2 F2 c2 =B2 c2 (A2 d4) | G4 G4 c4 C4 | F6 E2 D4 D4 | G4 G4 B6 A2 | G2 F2 E2 D2 C4 c4 | %32
w: joy with me both great and *|small, Her life brings|joy un- to us|all, her life brings|joy un- to us all, un-|
 (G3 A B2) (F2 G2 A2 G4) | C16 |] %34
w: to * * us * * *|all.|

